material/.icons/material/weight-pound.svg

<svg xmlns="http://www.w3.org/2000/svg" viewBox="0 0 24 24"><path d="M12 3a4 4 0 014 4c0 .73-.19 1.41-.54 2H18c.95 0 1.75.67 1.95 1.56C21.96 18.57 22 18.78 22 19a2 2 0 01-2 2H4a2 2 0 01-2-2c0-.22.04-.43 2.05-8.44C4.25 9.67 5.05 9 6 9h2.54A3.89 3.89 0 018 7a4 4 0 014-4m0 2a2 2 0 00-2 2 2 2 0 002 2 2 2 0 002-2 2 2 0 00-2-2m-6 6v8h5v-2H8v-6H6m7 0v8h3c1.11 0 2-.89 2-2v-.5c0-.57-.25-1.12-.68-1.5.43-.38.68-.93.68-1.5V13c0-1.11-.89-2-2-2h-3m2 2h1v1h-1v-1m0 3h1v1h-1v-1z"/></svg>

<?xml version="1.0" encoding="UTF-8"?><!DOCTYPE svg PUBLIC "-//W3C//DTD SVG 1.1//EN" "http://www.w3.org/Graphics/SVG/1.1/DTD/svg11.dtd"><svg xmlns="http://www.w3.org/2000/svg" xmlns:xlink="http://www.w3.org/1999/xlink" version="1.1" id="mdi-weight-pound" width="24" height="24" viewBox="0 0 24 24"><path d="M12,3A4,4 0 0,1 16,7C16,7.73 15.81,8.41 15.46,9H18C18.95,9 19.75,9.67 19.95,10.56C21.96,18.57 22,18.78 22,19A2,2 0 0,1 20,21H4A2,2 0 0,1 2,19C2,18.78 2.04,18.57 4.05,10.56C4.25,9.67 5.05,9 6,9H8.54C8.19,8.41 8,7.73 8,7A4,4 0 0,1 12,3M12,5A2,2 0 0,0 10,7A2,2 0 0,0 12,9A2,2 0 0,0 14,7A2,2 0 0,0 12,5M6,11V19H11V17H8V11H6M13,11V19H16C17.11,19 18,18.11 18,17V16.5C18,15.93 17.75,15.38 17.32,15C17.75,14.62 18,14.07 18,13.5V13C18,11.89 17.11,11 16,11H13M15,13H16V14H15V13M15,16H16V17H15V16Z" /></svg>
